resources/haticons/SVG/next_week.svg

<!-- Generated by IcoMoon.io -->
<svg version="1.1" xmlns="http://www.w3.org/2000/svg" width="24" height="24" viewBox="0 0 24 24">
<title>next_week</title>
<path d="M11.016 18.516l3.984-4.031-3.984-3.984-1.031 0.984 3 3-3 3zM9.984 5.016v1.969h4.031v-1.969h-4.031zM14.016 3q0.797 0 1.383 0.586t0.586 1.43v1.969h4.031q0.797 0 1.383 0.609t0.586 1.406v11.016q0 0.797-0.586 1.383t-1.383 0.586h-16.031q-0.797 0-1.383-0.586t-0.586-1.383v-11.016q0-0.797 0.586-1.406t1.383-0.609h4.031v-1.969q0-0.797 0.586-1.406t1.383-0.609h4.031z"></path>
</svg>

<svg xmlns="http://www.w3.org/2000/svg" width="24" height="24"><path d="M11.016 18.516L15 14.485l-3.984-3.984-1.031.984 3 3-3 3zm-1.032-13.5v1.969h4.031V5.016H9.984zM14.016 3q.797 0 1.383.586t.586 1.43v1.969h4.031q.797 0 1.383.609T21.985 9v11.016q0 .797-.586 1.383t-1.383.586H3.985q-.797 0-1.383-.586t-.586-1.383V9q0-.797.586-1.406t1.383-.609h4.031V5.016q0-.797.586-1.406t1.383-.609h4.031z"/></svg>
